X: 342
T:A l'heure
N: Derived from Jos2801-A_lheure.krn
C: Josquin des Prez
%%abc-version 2.0
%%abcx-abcm2ps-target-version 5.9.1 (29 Sep 2008)
%%abc-creator hum2abc beta
%%abcx-conversion-date 2019/02/12 16:15:54
%%abc-edited-by Jesse Rodin
%%abc-edited-by Jesse Rodin; Victoria Chang 2011/07/26
%%abcx-initial-encoding-date 2011/07/26/
%%humdrum-veritas 448243710
%%humdrum-veritas-data 4114182644
%%linebreak <none>
%%barnumbers 0
L: 1/4
M: 3/1
Q: 1/2=120
%%staves [1 2 3 4]
V: 1 clef=treble
V: 2 clef=treble-8
V: 3 clef=treble-8
V: 4 clef=bass
K: F
[V:1] z4z4G4 | 
[V:2] z12 | 
[V:3] G6B4AG | 
[V:4] z12 | 
[V:1] A8A4 | 
[V:2] z12 | 
[V:3] F2c3Bd3cA2 | 
[V:4] z4z4F,4 | 
[V:1] B2d3cc4=B2 | 
[V:2] z2B3c_e2d4 | 
[V:3] G4z4z4 | 
[V:4] G,8G,4 | 
[V:1] c2_e3dd4c2 | 
[V:2] c4z4f4 | 
[V:3] c4A2B2F4 | 
[V:4] A,2C3B,B,4A,2 | 
[V:1] d4z4D4 | 
[V:2] fedcB2c2d4 | 
[V:3] z2B4A2F2G2 | 
[V:4] B,2D3CC4=B,2 | 
[V:1] E2G3FD2E4 | 
[V:2] c4B4c4 | 
[V:3] C4G8 | 
[V:4] C4z4C,4 | 
[V:1] F2A3GG4^F2 | 
[V:2] A4f2e2d4 | 
[V:3] F4A8 | 
[V:4] D,2F,3E,C,2D,4 | 
[V:1] G2B3AA2F2G2 | 
[V:2] z12 | 
[V:3] G4d2A2B4 | 
[V:4] E,2G,3F,F,4E,2 | 
[V:1] C4z4z4 | 
[V:2] z2F2f2d2c4 | 
[V:3] (3A2B2c2F2B4A2 | 
[V:4] F,2A,3G,G,2E,2F,2 | 
[V:1] D12 | 
[V:2] B4A2B3AF2 | 
[V:3] B3AF2G3FD2 | 
[V:4] B,,4z4z4 | 
[V:1] E12 | 
[V:2] c8z2c2 | 
[V:3] C2G3EA2G4 | 
[V:4] C,12 | 
[V:1] F12 | 
[V:2] B2A2d4z2d2 | 
[V:3] z2F3GB2A4 | 
[V:4] D,12 | 
[V:1] G12 | 
[V:2] c2B2_e4z2_e2 | 
[V:3] z2G3Ac2B4 | 
[V:4] _E,12 | 
[V:1] z4z4A4 | 
[V:2] d2c2f4z2f2 | 
[V:3] z2A3Bd2c4 | 
[V:4] F,12 | 
[V:1] B12 | 
[V:2] e2d2g4z2g2 | 
[V:3] z2B3c_e2d4 | 
[V:4] z4z4G,4 | 
[V:1] c8c4 | 
[V:2] f2e2a4z2a2 | 
[V:3] z2c3df2e4 | 
[V:4] A,12 | 
[V:1] d4D3EF2G2 | 
[V:2] g2f3edcd4 | 
[V:3] d4z4z4 | 
[V:4] B,8B,4 | 
[V:1] E3FG2A2G2A2 | 
[V:2] z12 | 
[V:3] c12 | 
[V:4] C4C,3D,E,2F,2 | 
[V:1] F3GA2B2A2B2 | 
[V:2] d6B2c2B2 | 
[V:3] z12 | 
[V:4] D,3E,F,2G,2F,2G,2 | 
[V:1] G3AB2c2B2c2 | 
[V:2] z12 | 
[V:3] _e6c2d2c2 | 
[V:4] _E,3F,G,2A,2G,2A,2 | 
[V:1] A3Bc2d2c2d2 | 
[V:2] f6d2_e2d2 | 
[V:3] z12 | 
[V:4] F,3G,A,2B,2A,2B,2 | 
[V:1] B6G2G4 | 
[V:2] z12 | 
[V:3] g3fd2e2d2e2 | 
[V:4] G,3A,B,2C2B,2C2 | 
[V:1] z2c4A2A4 | 
[V:2] z4z4f4- | 
[V:3] c12 | 
[V:4] A,6F,2F,4 | 
[V:1] z2d4B2B4 | 
[V:2] f2d2d4g4- | 
[V:3] d12 | 
[V:4] z2B,4G,2G,4 | 
[V:1] c3BG2A3GE2 | 
[V:2] g2e2e4a4 | 
[V:3] c8c4 | 
[V:4] z2C4A,2A,4 | 
[V:1] D4z4z2D2 | 
[V:2] g2f3edcB3A | 
[V:3] d3cA2B3AF2 | 
[V:4] B,3A,F,2G,3F,D,2 | 
[V:1] E4F4G2E2 | 
[V:2] c6A2B2c2 | 
[V:3] G4A4G4 | 
[V:4] C,4z4z2C,2 | 
[V:1] F4G4A4 | 
[V:2] A4z4z2d2 | 
[V:3] z2d2B2c2A4 | 
[V:4] D,4E,4F,2D,2 | 
[V:1] z2G2A4B4 | 
[V:2] B2c2A4z4 | 
[V:3] z4z2f2d2e2- | 
[V:4] E,4F,4G,4 | 
[V:1] c2A2B4c4 | 
[V:2] z4z2g2e2f2 | 
[V:3] e2f2d4c4 | 
[V:4] z2F,2G,4A,4 | 
[V:1] d4z4d4 | 
[V:2] d4c3BG4 | 
[V:3] z2g2e2f2d4 | 
[V:4] B,2G,2A,4B,4 | 
[V:1] G2c3BA4G2 | 
[V:2] z4C8 | 
[V:3] c3de2f4e2 | 
[V:4] C4z4C4 | 
[V:1] A2D2F2G2A4 | 
[V:2] F2B,3C_E2D4 | 
[V:3] f3ed2cBd4- | 
[V:4] F,2B,3A,G,4^F,2 | 
[V:1] G12- | 
[V:2] G12- | 
[V:3] d2_e4dc_e3d | 
[V:4] G,2C,2_E,2F,2G,4- | 
[V:1] G12 |]  
[V:2] G12 |]  
[V:3] d12 |]  
[V:4] G,12 |]  



